src/assets/outline/Broom.svg

<?xml version="1.0" encoding="UTF-8"?>
<svg width="24" height="24" viewBox="0 0 24 24" xmlns="http://www.w3.org/2000/svg">
 <path d="m6.4498 8.5006c-0.06 0-0.11999-0.01002-0.17999-0.02002-0.19-0.05-0.36001-0.16997-0.46001-0.33997l-1.56-2.56c-0.38-0.62-0.50001-1.36-0.32001-2.08 0.17-0.71 0.61-1.32 1.24-1.7 0.62-0.38 1.36-0.50001 2.08-0.32001 0.72 0.17 1.32 0.60999 1.7 1.24l1.56 2.5601c0.22 0.35 0.1 0.80997-0.25 1.03l-3.42 2.08c-0.12 0.07-0.25 0.10999-0.39 0.10999zm0.14-5.6c-0.23 0-0.45 0.06-0.64 0.18-0.28 0.17-0.47999 0.44995-0.55999 0.76995-0.08001 0.33-0.03001 0.66001 0.13999 0.94001l1.17 1.92 2.14-1.3-1.17-1.92c-0.17-0.28-0.45-0.48-0.77-0.56-0.11-0.02-0.21-0.02997-0.31-0.02997z"/>
 <path d="m11.42 22.61c-0.3 0-0.6-0.04-0.89-0.13-0.87995-0.26-1.59-0.8599-2-1.7099l-2.05-4.18c-1.09-2.22-0.32-4.86 1.79-6.15l3.16-1.92c2.11-1.29 4.8201-0.76001 6.2901 1.23l2.77 3.7399c0.56 0.76 0.7699 1.67 0.5999 2.56s-0.7099 1.6601-1.5199 2.1501l-6.4301 3.9099c-0.54 0.33-1.13 0.5-1.72 0.5zm2.48-13.29c-0.58 0-1.16 0.15998-1.7 0.47998l-3.16 1.92c-1.45 0.88-1.97 2.69-1.23 4.21l2.05 4.18c0.22995 0.46 0.61005 0.79 1.08 0.93s0.9699 0.0601 1.3999-0.1999l6.4301-3.9101c0.44-0.27 0.73-0.6799 0.83-1.1599 0.09-0.48-0.02-0.97-0.33-1.38l-2.7701-3.74c-0.63-0.87002-1.6-1.33-2.6-1.33z"/>
 <path d="m7.6799 12.43c-0.06 0-0.11999-0.01-0.17999-0.02-0.19-0.05-0.36001-0.17-0.46001-0.34l-2.08-3.42c-0.22-0.35-0.1-0.81002 0.25-1.03l5.12-3.12c0.35-0.21 0.82-0.1 1.03 0.25l2.08 3.42c0.1 0.17 0.14 0.37001 0.09 0.57001-0.05 0.19-0.17 0.36002-0.34 0.46002l-5.12 3.12c-0.12 0.08-0.26002 0.11-0.39002 0.11zm-1.05-3.91 1.3 2.14 3.84-2.34-1.3-2.14-3.84 2.34z"/>
 <path d="m15.96 20.27c-0.25 0-0.5-0.1301-0.64-0.3601l-1.65-2.7099c-0.22-0.35-0.1-0.81 0.25-1.03 0.35-0.21 0.82-0.1 1.03 0.25l1.65 2.71c0.22 0.35 0.1 0.8099-0.25 1.0299-0.12 0.07-0.26 0.1101-0.39 0.1101z"/>
 <path d="m13.4 21.83c-0.25 0-0.5-0.1301-0.64-0.3601l-1.65-2.7099c-0.22-0.35-0.1-0.8101 0.25-1.0301 0.35-0.21 0.82-0.1 1.03 0.25l1.65 2.71c0.22 0.35 0.1 0.81-0.25 1.03-0.12 0.07-0.26 0.1101-0.39 0.1101z"/>
 <path d="m18.52 18.71c-0.25 0-0.5-0.13-0.64-0.36l-1.65-2.71c-0.22-0.35-0.1-0.81 0.25-1.03 0.35-0.21 0.82-0.1 1.03 0.25l1.65 2.71c0.22 0.35 0.1 0.81-0.25 1.03-0.12 0.07-0.25 0.11-0.39 0.11z"/>
</svg>

<svg width="24" height="24" viewBox="0 0 24 24"  xmlns="http://www.w3.org/2000/svg">
<path d="M6.44977 8.50057C6.38977 8.50057 6.32978 8.49055 6.26978 8.48055C6.07978 8.43055 5.90977 8.31058 5.80977 8.14058L4.24978 5.58059C3.86978 4.96059 3.74977 4.22057 3.92977 3.50057C4.09977 2.79057 4.53977 2.18056 5.16977 1.80056C5.78977 1.42056 6.52978 1.30055 7.24978 1.48055C7.96978 1.65055 8.56977 2.09054 8.94977 2.72054L10.5098 5.2806C10.7298 5.6306 10.6098 6.09057 10.2598 6.31057L6.83977 8.39058C6.71977 8.46058 6.58977 8.50057 6.44977 8.50057ZM6.58977 2.90059C6.35977 2.90059 6.13977 2.96059 5.94977 3.08059C5.66977 3.25059 5.46978 3.53054 5.38978 3.85054C5.30977 4.18054 5.35977 4.51055 5.52977 4.79055L6.69977 6.71059L8.83977 5.41054L7.66977 3.49056C7.49977 3.21056 7.21977 3.01056 6.89977 2.93056C6.78977 2.91056 6.68977 2.90059 6.58977 2.90059Z" />
<path d="M11.4198 22.61C11.1198 22.61 10.8198 22.57 10.5298 22.48C9.64985 22.22 8.93985 21.6201 8.52985 20.7701L6.47985 16.5901C5.38985 14.3701 6.15985 11.7301 8.26985 10.4401L11.4298 8.52007C13.5398 7.23008 16.2499 7.76006 17.7199 9.75006L20.4899 13.49C21.0499 14.25 21.2598 15.16 21.0898 16.05C20.9198 16.94 20.3799 17.7101 19.5699 18.2001L13.1398 22.11C12.5998 22.44 12.0098 22.61 11.4198 22.61ZM13.8998 9.32006C13.3198 9.32006 12.7398 9.48004 12.1998 9.80004L9.03984 11.72C7.58984 12.6 7.06985 14.41 7.80985 15.93L9.85985 20.11C10.0898 20.57 10.4699 20.9 10.9399 21.04C11.4099 21.18 11.9098 21.1001 12.3398 20.8401L18.7699 16.93C19.2099 16.66 19.4999 16.2501 19.5999 15.7701C19.6899 15.2901 19.5799 14.8001 19.2699 14.3901L16.4998 10.6501C15.8698 9.78008 14.8998 9.32006 13.8998 9.32006Z" />
<path d="M7.67992 12.4299C7.61992 12.4299 7.55993 12.4199 7.49993 12.4099C7.30993 12.3599 7.13992 12.2399 7.03992 12.0699L4.95994 8.64995C4.73994 8.29995 4.85994 7.83993 5.20994 7.61993L10.3299 4.49993C10.6799 4.28993 11.1499 4.39993 11.3599 4.74993L13.4399 8.16991C13.5399 8.33991 13.5799 8.53992 13.5299 8.73992C13.4799 8.92992 13.3599 9.09994 13.1899 9.19994L8.06994 12.3199C7.94994 12.3999 7.80992 12.4299 7.67992 12.4299ZM6.62994 8.51995L7.92992 10.6599L11.7699 8.31994L10.4699 6.17992L6.62994 8.51995Z" />
<path d="M15.9599 20.2699C15.7099 20.2699 15.4599 20.1398 15.3199 19.9098L13.6699 17.1999C13.4499 16.8499 13.5699 16.3899 13.9199 16.1699C14.2699 15.9599 14.7399 16.0699 14.9499 16.4199L16.5999 19.1299C16.8199 19.4799 16.6999 19.9398 16.3499 20.1598C16.2299 20.2298 16.0899 20.2699 15.9599 20.2699Z" />
<path d="M13.3998 21.8295C13.1498 21.8295 12.8998 21.6994 12.7598 21.4694L11.1098 18.7595C10.8898 18.4095 11.0098 17.9494 11.3598 17.7294C11.7098 17.5194 12.1798 17.6294 12.3898 17.9794L14.0398 20.6894C14.2598 21.0394 14.1398 21.4994 13.7898 21.7194C13.6698 21.7894 13.5298 21.8295 13.3998 21.8295Z" />
<path d="M18.52 18.7103C18.27 18.7103 18.02 18.5803 17.88 18.3503L16.23 15.6403C16.01 15.2903 16.13 14.8303 16.48 14.6103C16.83 14.4003 17.3 14.5103 17.51 14.8603L19.16 17.5703C19.38 17.9203 19.26 18.3803 18.91 18.6003C18.79 18.6703 18.66 18.7103 18.52 18.7103Z" />
</svg>
